X: 866
T: Alex And Angie
R: slip jig
M: 9/8
K: Gmajor
G2F GBd AFD|G2F GBd cBA|G2F GAB Bcd|e2A AGE EFD|
G2F GBd ABA|G2F GBd c2A|G2F GAB Bcd|e2A AGE FGA||
B2d dcB G2A|BcB dcB BAG|B2d ABA GFD|E2F FGA ABc|
B2d dcB G2A|BcB d2c BAG|B2d ABA GFD|CDE E2F FGA||

